X:1
T:Introduction
B:Invitation a la Waltze
O:Wallonie
M:3/8
L:1/8
Q:C8=30
K:D
A |: d2 A/F/ | DDD | E E/G/F/E/ | DA,A |
d2 A/F/ | DDD | E E/G/F/E/ |1 D2 A :|2 D2 d/=c/ |
K:G
|: Bcd | e2 c/B/ | ABc | d2 B/A/ |
GAB | c2 A | F F/E/ F/D/ |1 G2 d/c/ :|2 G2 A/F/ |
K:D
|: Ddd | Dff | Daa/ | ge/g/f |
Ddd | Dff | g/b/ a/g/ f/e/ |1 d2 A/F/ :|2 d2 D/F/ |
|: A A D/F/ | A A d | e e/f/ g/e/ | f2 D/F/ |
A A D/F/ | A A d | c c/d/ e/c/ |1 d2D/F/ :|2 d2 ||
